src/lib/assets/images/solidjs-logo.svg

<svg width="40" height="37" viewBox="0 0 40 37" fill="none" xmlns="http://www.w3.org/2000/svg">
<path d="M39.385 8.18821C39.385 8.18821 26.2946 -1.24998 16.1681 0.928064L15.4271 1.17007C13.9452 1.65408 12.7103 2.38009 11.9693 3.34811L11.4753 4.07412L7.77051 10.3662L14.1922 11.5763C16.9091 13.2703 20.3669 13.9963 23.5777 13.2703L34.9392 15.4483L39.385 8.18821Z" fill="#76B3E1"/>
<path opacity="0.3" d="M39.385 8.18821C39.385 8.18821 26.2946 -1.24998 16.1681 0.928064L15.4271 1.17007C13.9452 1.65408 12.7103 2.38009 11.9693 3.34811L11.4753 4.07412L7.77051 10.3662L14.1922 11.5763C16.9091 13.2703 20.3669 13.9963 23.5777 13.2703L34.9392 15.4483L39.385 8.18821Z" fill="url(#paint0_linear_18_8)"/>
<path d="M11.9694 8.1882L10.9815 8.4302C6.78268 9.64022 5.54774 13.5123 7.77063 16.9004C10.2405 20.0464 15.4273 21.7405 19.6261 20.5304L34.9393 15.4483C34.9393 15.4483 21.8489 6.01015 11.9694 8.1882Z" fill="#518AC8"/>
<path opacity="0.3" d="M11.9694 8.1882L10.9815 8.4302C6.78268 9.64022 5.54774 13.5123 7.77063 16.9004C10.2405 20.0464 15.4273 21.7405 19.6261 20.5304L34.9393 15.4483C34.9393 15.4483 21.8489 6.01015 11.9694 8.1882Z" fill="url(#paint1_linear_18_8)"/>
<path d="M32.2224 19.0784C30.8396 17.3858 28.9726 16.136 26.8606 15.4893C24.7485 14.8426 22.4874 14.8283 20.367 15.4484L5.05377 20.2885L0.114014 28.7586L27.7767 33.3567L32.7164 24.6446C33.7044 22.9505 33.4574 21.0145 32.2224 19.0784Z" fill="url(#paint2_linear_18_8)"/>
<path d="M27.2827 27.5487C25.8999 25.856 24.0329 24.6062 21.9208 23.9595C19.8087 23.3128 17.5477 23.2986 15.4273 23.9186L0.114014 28.7587C0.114014 28.7587 13.2044 38.4389 23.3309 36.0188L24.0718 35.7768C28.2706 34.5668 29.7526 30.6947 27.2827 27.5487Z" fill="url(#paint3_linear_18_8)"/>
<defs>
<linearGradient id="paint0_linear_18_8" x1="5.9181" y1="0.444054" x2="36.4256" y2="15.5743" gradientUnits="userSpaceOnUse">
<stop offset="0.1" stop-color="#76B3E1"/>
<stop offset="0.3" stop-color="#DCF2FD"/>
<stop offset="1" stop-color="#76B3E1"/>
</linearGradient>
<linearGradient id="paint1_linear_18_8" x1="22.7875" y1="7.60738" x2="17.6011" y2="25.2352" gradientUnits="userSpaceOnUse">
<stop stop-color="#76B3E1"/>
<stop offset="0.5" stop-color="#4377BB"/>
<stop offset="1" stop-color="#1F3B77"/>
</linearGradient>
<linearGradient id="paint2_linear_18_8" x1="3.67064" y1="15.2548" x2="34.3627" y2="36.5522" gradientUnits="userSpaceOnUse">
<stop stop-color="#315AA9"/>
<stop offset="0.5" stop-color="#518AC8"/>
<stop offset="1" stop-color="#315AA9"/>
</linearGradient>
<linearGradient id="paint3_linear_18_8" x1="17.6996" y1="17.7475" x2="5.62037" y2="62.9579" gradientUnits="userSpaceOnUse">
<stop stop-color="#4377BB"/>
<stop offset="0.5" stop-color="#1A336B"/>
<stop offset="1" stop-color="#1A336B"/>
</linearGradient>
</defs>
</svg>

<svg xmlns="http://www.w3.org/2000/svg" width="40" height="37" fill="none"><path fill="#76B3E1" d="M39.385 8.188S26.295-1.25 16.168.928l-.74.242c-1.483.484-2.718 1.21-3.459 2.178l-.494.726-3.704 6.292 6.421 1.21c2.717 1.694 6.175 2.42 9.386 1.694l11.361 2.178 4.446-7.26Z"/><path fill="url(#a)" d="M39.385 8.188S26.295-1.25 16.168.928l-.74.242c-1.483.484-2.718 1.21-3.459 2.178l-.494.726-3.704 6.292 6.421 1.21c2.717 1.694 6.175 2.42 9.386 1.694l11.361 2.178 4.446-7.26Z" opacity=".3"/><path fill="#518AC8" d="m11.97 8.188-.989.242c-4.198 1.21-5.433 5.082-3.21 8.47 2.47 3.146 7.656 4.84 11.855 3.63l15.313-5.082S21.85 6.01 11.97 8.188Z"/><path fill="url(#b)" d="m11.97 8.188-.989.242c-4.198 1.21-5.433 5.082-3.21 8.47 2.47 3.146 7.656 4.84 11.855 3.63l15.313-5.082S21.85 6.01 11.97 8.188Z" opacity=".3"/><path fill="url(#c)" d="M32.222 19.078a11.125 11.125 0 0 0-5.361-3.589 11.333 11.333 0 0 0-6.494-.04l-15.313 4.84-4.94 8.47 27.663 4.598 4.94-8.712c.987-1.694.74-3.63-.495-5.567Z"/><path fill="url(#d)" d="M27.283 27.549a11.124 11.124 0 0 0-5.362-3.59 11.334 11.334 0 0 0-6.494-.04L.114 28.759s13.09 9.68 23.217 7.26l.74-.242c4.2-1.21 5.682-5.082 3.212-8.228Z"/><defs><linearGradient id="a" x1="5.918" x2="36.426" y1=".444" y2="15.574" gradientUnits="userSpaceOnUse"><stop offset=".1" stop-color="#76B3E1"/><stop offset=".3" stop-color="#DCF2FD"/><stop offset="1" stop-color="#76B3E1"/></linearGradient><linearGradient id="b" x1="22.788" x2="17.601" y1="7.607" y2="25.235" gradientUnits="userSpaceOnUse"><stop stop-color="#76B3E1"/><stop offset=".5" stop-color="#4377BB"/><stop offset="1" stop-color="#1F3B77"/></linearGradient><linearGradient id="c" x1="3.671" x2="34.363" y1="15.255" y2="36.552" gradientUnits="userSpaceOnUse"><stop stop-color="#315AA9"/><stop offset=".5" stop-color="#518AC8"/><stop offset="1" stop-color="#315AA9"/></linearGradient><linearGradient id="d" x1="17.7" x2="5.62" y1="17.747" y2="62.958" gradientUnits="userSpaceOnUse"><stop stop-color="#4377BB"/><stop offset=".5" stop-color="#1A336B"/><stop offset="1" stop-color="#1A336B"/></linearGradient></defs></svg>
